icons/editor-type-2-filled.svg

<svg width="24" height="24" viewBox="0 0 24 24" fill="none" xmlns="http://www.w3.org/2000/svg">
<g id="type-02">
<path id="Icon" d="M9.08571 19.1998H12.3529M12.3529 19.1998H15.7714M12.3529 19.1998V4.7998M12.3529 4.7998H7.02857C6.46051 4.7998 6 5.26031 6 5.82838V7.34098M12.3529 4.7998H17.2538C17.8218 4.7998 18.2823 5.26031 18.2823 5.82838V7.76451" stroke="black" stroke-width="2" stroke-linecap="round" stroke-linejoin="round"/>
</g>
</svg>

<svg xmlns="http://www.w3.org/2000/svg" width="24" height="24" fill="none" viewBox="0 0 24 24"><path stroke="currentColor" stroke-linecap="round" stroke-linejoin="round" stroke-width="2" d="M9.086 19.2h3.267m0 0h3.418m-3.418 0V4.8m0 0H7.029C6.46 4.8 6 5.26 6 5.828v1.513M12.353 4.8h4.9c.569 0 1.03.46 1.03 1.028v1.937"/></svg>
